src/icons/twitter.svg

<svg
  width="48"
  height="48"
  viewBox="0 0 48 48"
  fill="none"
  xmlns="http://www.w3.org/2000/svg"
  aria-hidden="true"
  focusable="false"
>
  <path
    d="M48 9.34601C46.234 10.1178 44.336 10.6376 42.344 10.8719C44.378 9.67283 45.94 7.77292 46.6739 5.50877C44.772 6.61919 42.664 7.4264 40.42 7.86151C38.626 5.97735 36.064 4.79999 33.232 4.79999C26.874 4.79999 22.202 10.6395 23.638 16.7016C15.456 16.2979 8.2 12.439 3.342 6.5739C0.762 10.9309 2.004 16.6306 6.388 19.517C4.776 19.4658 3.256 19.0306 1.93 18.3042C1.822 22.7951 5.092 26.9965 9.828 27.9318C8.442 28.3018 6.924 28.3885 5.38 28.0971C6.632 31.9481 10.268 34.7498 14.58 34.8285C10.44 38.024 5.224 39.4514 0 38.8449C4.358 41.5953 9.536 43.2 15.096 43.2C33.38 43.2 43.7099 27.9987 43.0859 14.3645C45.01 12.9962 46.68 11.2892 48 9.34601Z"
    fill="currentColor"
  />
</svg>

<svg
  width="48"
  height="48"
  viewBox="0 0 48 48"
  fill="none"
  xmlns="http://www.w3.org/2000/svg"
  aria-hidden="true"
  focusable="false"
>
  <path
    d="M48 9.346a19.905 19.905 0 0 1-5.656 1.526c2.034-1.2 3.596-3.1 4.33-5.363a19.916 19.916 0 0 1-6.254 2.353A9.904 9.904 0 0 0 33.232 4.8c-6.358 0-11.03 5.84-9.594 11.902A28.106 28.106 0 0 1 3.342 6.574C.762 10.93 2.004 16.63 6.388 19.517a9.926 9.926 0 0 1-4.458-1.213c-.108 4.491 3.162 8.693 7.898 9.628-1.386.37-2.904.457-4.448.165 1.252 3.851 4.888 6.653 9.2 6.731-4.14 3.196-9.356 4.623-14.58 4.017A28.2 28.2 0 0 0 15.096 43.2c18.284 0 28.614-15.201 27.99-28.836A19.878 19.878 0 0 0 48 9.346Z"
    fill="currentColor"
  />
</svg>
